X:131
T:Koiviston polska
R:sl\"angpolska
H:\"aven i Am, #48
A:Finland
Z:id:hn-sp-131
M:3/4
L:1/16
K:Gm
|: dedc BcBA G2B2 | ABAG ^FGF=E D2EF | G2^FG A2GA B2AB | c2Bc d4 d4 :|
f4 fgfe d2d2 | e2e2 e2dc d2B2 | f4 fgfe d2d2 | e2e2 e2dc d2c2 |
BABc d2B2 A2G2 | BAG^F F4 G2A2 | BABc d2B2 A2G2 | BAG^F F4 G4 ||
<end>
<start>
